!!!ONB: MCCC : ILB0177_01 : Extracted Monophonic Melody
!!!COM: Beethoven, Ludwig van
!!!OPR: Piano Sonata No.16
!!!OMV: 1
!!!SCT: Op.31 No.1
!!!ODT: 1801///
**kern
*thru
*staff1
*Ipiano
*>I
*clefG2
*k[f#]
*G:
*M2/4
*MM132
[16gg
=1
4.gg]
16ff#
16ee
=2
16dd
16dd#
16ee
16b
16dd
16cc
16b
16a
=3
*>A
4g
8r
16r
[16g
=4
8.g]
[16b
8.b]
[16g
=5
8g]
8r
8r
16r
[16g
=6
8.g]
[16dd
8.dd]
[16g
=7
8g]
8r
8r
16r
[16b
=8
8.b]
[16gg
8.gg]
16ff#[
=9
8ff#]
8r
4r
=10
8dd
8r
8cc#
8r
=11
8dd
8r
8r
16r
16ff[
=12
4.ff]
16ee
16dd
=13
16cc
16cc#
16dd
16a
16cc
16b-
16a
16g
=14
4f
8r
16r
[16f
=15
8.f]
[16a
8.a]
[16f
=16
8f]
8r
8r
16r
[16f
=17
8.f]
[16cc
8.cc]
[16f
=18
8f]
8r
8r
16r
[16a
=19
8.a]
[16ff
8.ff]
[16ee
=20
8ee]
8r
4r
=21
8cc
8r
8b
8r
=22
8cc
8r
8r
16r
[16ee
=23
8.ee]
[16ccc
8.ccc]
16bb[
=24
8bb]
8r
4r
=25
8gg
8r
8ff#
8r
=26
8gg
8r
4r
=27
8bb
8r
8aa
8r
=28
8bb
8r
4r
=29
8ddd
8r
8ddd
8r
=30
16gg
16aa#
16bb
16ff#
16aa
16gg
16ff#
16ee
=31
16dd
16dd#
16ee
16b
16dd
16cc
16b
16a
=32
16g
16a#
16b
16f#
16a
16g
16f#
16e
=33
16d
16d#
16e
16B
16d
16c
16B
16A
=34
16G
16A#
16B
16F#
16A
16G
16F#
16E
=35
16D
16D#
16E
16BB
16D
16C
16BB
16AA
=36
16GG
16FF#
16GG
16AA
16BB-
16BB
16C
16C#
=37
16D
16C#
16D
16E
16F#
16D
16E
16F#
=38
16G
16F#
16G
16A
16B-
16B
16c
16c#
=39
16d
16d
16f#
16a
16dd
16dd
16ff#
16aa
=40
16ddd
16ddd
16aa
16ff#
16dd
16dd
16a
16f#
=41
16d
16d
16f#
16a
16dd
16dd
16ff#
16aa
=42
16ddd
16ddd
16aa
16ff#
16dd
16dd
16a
16f#
=43
16d
16dd
16a
16f#
16d
16d
16A
16F#
=44
2D[
=45
4..D]
[16gg
=46
4.gg]
16ff#
16ee
=47
16dd
16dd#
16ee
16b
16dd
16cc
16b
16a
=48
4g
8r
16r
[16g
=49
8.g]
[16b
8.b]
[16g
=50
8g]
8r
8r
16r
[16g
=51
8.g]
[16dd
8.dd]
[16g
=52
8g]
8r
8r
16r
[16b
=53
8.b]
[16gg
8.gg]
16ff#[
=54
8ff#]
8r
4r
=55
8ee
8r
8ee#
8r
=56
8ff#
8r
8r
16r
[16b
=57
8.b]
[16gg
8.gg]
16ff#[
=58
8ff#]
8r
4r
=59
8b
8r
8b
8r
=60
8a#
8r
4r
=61
8ee
8r
8ee#
8r
=62
8ff#
8r
4r
=63
8b
8r
8b
8r
=64
16a#
16f#
16e#
16f#
16e#
16f#
16e#
16f#
=65
16e#
16f#
16e#
16f#
16e#
16f#
16g#
16f#
=66
8f#
4dd#
8cc#
=67
8b
4dd#
8b
=68
8a#
4ff#
8ff#[
=69
8ff#]
16gg#
16ff#
16ee
16dd#
16ee
16cc#
=70
8b
4dd#
8cc#
=71
8b
4dd#
8b
=72
8a#
16cc#
16b
16a#
16b
16cc#
16a#
=73
8b
8r
4r
=74
16d
16f#
16d
16f#
16d
16f#
16d
16f#
=75
16d
16f#
16d
16f#
16d
16f#
16d
16f#
=76
16e
16f#
16e
16f#
16c#
16f#
16c#
16f#
=77
16c#
16f#
16c#
16f#
16c#
16f#
16c#
16f#
=78
16d
16f#
16d
16f#
16e#
16g#
16e#
16g#
=79
16g
16a
16g
16a
16g
16a
16g
16a
=80
16f#
16a
16f#
16a
16a
16b#
16a
16b#
=81
16b
16cc#
16b
16cc#
16b
16cc#
16b
16cc#
=82
16a
16cc#
16a
16cc#
16a
16cc#
16a
16cc#
=83
16f#
16dd#
16b
16dd#
16g
16ee
16b
16ee
=84
16e
16cc#
16a
16cc#
16f#
16dd
16a
16dd
=85
16d
16b
16g
16b
16e
16cc#
16g
16cc#
=86
16c#
16a#
16f#
16a#
16B
16b
16B
16b
=87
16g
16gg
16g
16gg
16c#
16cc#
16f#
16ff#
=88
8b
4dd
8dd
=89
8cc#
16ee
16dd
16cc#
16dd
16ee
16cc#
=90
8dd
4ff#
8ff#
=91
8ee#
16gg#
16ff#
16ee#
16ff#
16gg#
16ee#
=92
8ff#
4aa
8aa
=93
4aa
16aa
16gg
16ff#
16gg
=94
4gg
16gg
16ff#
16ee#
16ff#
=95
4ff#[
16ff#]
16ee
16ff#
16ee[
=96
16ee]
16ee
16ff#
16ee
8f#
16ee
16dd
=97
16g
16cc#
16dd
16cc#
16e
16a#
16b
16a#
=98
4b
8f#
8dd
=99
4.cc#
8a#
=100
4b
8f#
8dd#
=101
4.cc#
8a#
=102
4b
8f#
8dd
=103
4.cc#
8a#
=104
8b
8dd
8cc#
8a#
=105
8b
8dd
8cc#
8a#
=106
8b
8dd
8cc#
8a#
=107
8b
8dd
8cc#
8a#
=108
4b
8r
16r
16d[
=109
4d]
8r
16r
16B[
=110
4B]
4r
=111
8BB
8r
8D
16r
[16gg
=112
4.gg]
16ff#
16ee
=113
16dd
16dd#
16ee
16b
16dd
16cc
16b
16a
=114
*>A
4g
8r
16r
[16g
=115
8.g]
[16b
8.b]
[16g
=116
8g]
8r
8r
16r
[16g
=117
8.g]
[16dd
8.dd]
[16g
=118
8g]
8r
8r
16r
[16b
=119
8.b]
[16gg
8.gg]
16ff#[
=120
8ff#]
8r
4r
=121
8dd
8r
8cc#
8r
=122
8dd
8r
8r
16r
16ff[
=123
4.ff]
16ee
16dd
=124
16cc
16cc#
16dd
16a
16cc
16b-
16a
16g
=125
4f
8r
16r
[16f
=126
8.f]
[16a
8.a]
[16f
=127
8f]
8r
8r
16r
[16f
=128
8.f]
[16cc
8.cc]
[16f
=129
8f]
8r
8r
16r
[16a
=130
8.a]
[16ff
8.ff]
[16ee
=131
8ee]
8r
4r
=132
8cc
8r
8b
8r
=133
8cc
8r
8r
16r
[16ee
=134
8.ee]
[16ccc
8.ccc]
16bb[
=135
8bb]
8r
4r
=136
8gg
8r
8ff#
8r
=137
8gg
8r
4r
=138
8bb
8r
8aa
8r
=139
8bb
8r
4r
=140
8ddd
8r
8ddd
8r
=141
16gg
16aa#
16bb
16ff#
16aa
16gg
16ff#
16ee
=142
16dd
16dd#
16ee
16b
16dd
16cc
16b
16a
=143
16g
16a#
16b
16f#
16a
16g
16f#
16e
=144
16d
16d#
16e
16B
16d
16c
16B
16A
=145
16G
16A#
16B
16F#
16A
16G
16F#
16E
=146
16D
16D#
16E
16BB
16D
16C
16BB
16AA
=147
16GG
16FF#
16GG
16AA
16BB-
16BB
16C
16C#
=148
16D
16C#
16D
16E
16F#
16D
16E
16F#
=149
16G
16F#
16G
16A
16B-
16B
16c
16c#
=150
16d
16d
16f#
16a
16dd
16dd
16ff#
16aa
=151
16ddd
16ddd
16aa
16ff#
16dd
16dd
16a
16f#
=152
16d
16d
16f#
16a
16dd
16dd
16ff#
16aa
=153
16ddd
16ddd
16aa
16ff#
16dd
16dd
16a
16f#
=154
16d
16dd
16a
16f#
16d
16d
16A
16F#
=155
2D[
=156
4..D]
[16gg
=157
4.gg]
16ff#
16ee
=158
16dd
16dd#
16ee
16b
16dd
16cc
16b
16a
=159
4g
8r
16r
[16g
=160
8.g]
[16b
8.b]
[16g
=161
8g]
8r
8r
16r
[16g
=162
8.g]
[16dd
8.dd]
[16g
=163
8g]
8r
8r
16r
[16b
=164
8.b]
[16gg
8.gg]
16ff#[
=165
8ff#]
8r
4r
=166
8ee
8r
8ee#
8r
=167
8ff#
8r
8r
16r
[16b
=168
8.b]
[16gg
8.gg]
16ff#[
=169
8ff#]
8r
4r
=170
8b
8r
8b
8r
=171
8a#
8r
4r
=172
8ee
8r
8ee#
8r
=173
8ff#
8r
4r
=174
8b
8r
8b
8r
=175
16a#
16f#
16e#
16f#
16e#
16f#
16e#
16f#
=176
16e#
16f#
16e#
16f#
16e#
16f#
16g#
16f#
=177
8f#
4dd#
8cc#
=178
8b
4dd#
8b
=179
8a#
4ff#
8ff#[
=180
8ff#]
16gg#
16ff#
16ee
16dd#
16ee
16cc#
=181
8b
4dd#
8cc#
=182
8b
4dd#
8b
=183
8a#
16cc#
16b
16a#
16b
16cc#
16a#
=184
8b
8r
4r
=185
16d
16f#
16d
16f#
16d
16f#
16d
16f#
=186
16d
16f#
16d
16f#
16d
16f#
16d
16f#
=187
16e
16f#
16e
16f#
16c#
16f#
16c#
16f#
=188
16c#
16f#
16c#
16f#
16c#
16f#
16c#
16f#
=189
16d
16f#
16d
16f#
16e#
16g#
16e#
16g#
=190
16g
16a
16g
16a
16g
16a
16g
16a
=191
16f#
16a
16f#
16a
16a
16b#
16a
16b#
=192
16b
16cc#
16b
16cc#
16b
16cc#
16b
16cc#
=193
16a
16cc#
16a
16cc#
16a
16cc#
16a
16cc#
=194
16f#
16dd#
16b
16dd#
16g
16ee
16b
16ee
=195
16e
16cc#
16a
16cc#
16f#
16dd
16a
16dd
=196
16d
16b
16g
16b
16e
16cc#
16g
16cc#
=197
16c#
16a#
16f#
16a#
16B
16b
16B
16b
=198
16g
16gg
16g
16gg
16c#
16cc#
16f#
16ff#
=199
8b
4dd
8dd
=200
8cc#
16ee
16dd
16cc#
16dd
16ee
16cc#
=201
8dd
4ff#
8ff#
=202
8ee#
16gg#
16ff#
16ee#
16ff#
16gg#
16ee#
=203
8ff#
4aa
8aa
=204
4aa
16aa
16gg
16ff#
16gg
=205
4gg
16gg
16ff#
16ee#
16ff#
=206
4ff#[
16ff#]
16ee
16ff#
16ee[
=207
16ee]
16ee
16ff#
16ee
8f#
16ee
16dd
=208
16g
16cc#
16dd
16cc#
16e
16a#
16b
16a#
=209
4b
8f#
8dd
=210
4.cc#
8a#
=211
4b
8f#
8dd#
=212
4.cc#
8a#
=213
4b
8f#
8dd
=214
4.cc#
8a#
=215
8b
8dd
8cc#
8a#
=216
8b
8dd
8cc#
8a#
=217
8b
8dd
8cc#
8a#
=218
8b
8dd
8cc#
8a#
=219
4b
8r
16r
16d[
=220
4d]
8r
16r
16B[
=221
4B]
4r
=222
8BB
8r
8D
16r
[16gg
=223
4.gg]
16ff#
16ee
=224
16dd
16dd#
16ee
16b
16dd
16cc
16b
16a
=225
*>B
4g
8r
16r
[16g
=226
8.g]
[16b
8.b]
[16g
=227
8g]
8r
8r
16r
[16g
=228
8.g]
[16dd
8.dd]
[16g
=229
8g]
8r
8r
16r
[16g
=230
8.g]
[16gg
8.gg]
[16g
=231
8.g]
[16gg
8.gg]
[16g
=232
8.g]
[16gg
8.gg]
16g[
=233
8g]
8r
8r
16r
[16cc
=234
8.cc]
[16ee-
8.ee-]
[16cc
=235
8cc]
8r
8r
16r
[16cc
=236
8.cc]
[16ccc
8.ccc]
[16cc
=237
8cc]
8r
8r
16r
[16cc
=238
8.cc]
[16ccc
8.ccc]
[16cc
=239
8.cc]
[16ccc
8.ccc]
[16cc
=240
8.cc]
[16ccc
8.ccc]
[16cc
=241
8.cc]
[16ccc
8.ccc]
[16ff
=242
8.ff]
[16fff
8.fff]
16ff[
=243
8.ff]
[16fff
8.fff]
[16ff
=244
8.ff]
[16fff
8.fff]
[16ff
=245
16ff]
16ccc#
16ddd
16aa
16ccc
16bb-
16aa
16gg
=246
16ff
16ff#
16gg
16dd
16ff
16ee-
16dd
16cc
=247
16b-
16cc#
16dd
16a
16cc
16b-
16a
16g
=248
16f
16f#
16g
16d
16f
16e-
16d
16c
=249
16B-
16c#
16d
16A
16c
16B-
16A
16G
=250
16F
16G
16A-
16G
16F
16E-
16D
16C
=251
8BB
8r
[4gg
=252
4gg]
4ff
=253
16ee-
16ddd
16eee-
16bb
16ddd
16ccc
16bb-
16aa-
=254
16gg
16aa-
16gg
16ff#
16gg
16ff
16ee-
16dd
=255
16cc
16dd
16ee-
16b
16dd
16cc
16b-
16a-
=256
16g
16a-
16g
16f#
16g
16f
16e-
16d
=257
16c
16d
16e-
16B
16d
16c
16B-
16A-
=258
16G
16A
16B-
16A
16G
16F
16E
16D
=259
8C#
8r
[4aa
=260
4aa]
4gg
=261
16ff
16ee
16ff
16cc#
16ee
16dd
16cc
16b-
=262
16a
16b-
16a
16g#
16a
16g#
16f
16e
=263
16d
16e
16f
16c#
16e
16d
16c
16B-
=264
16A
16B-
16c
16B-
16A
16B-
16A
16G
=265
16F#
16A
16G
16B-
16A
16c
16B-
16d
=266
16c
16e-
16d
16c
16B-
16A
16G
16F#
=267
16G
16A
16B-
16A
16G
16F
16E-
16D
=268
16C#
16D
16E
16D
16C#
16G
16E
16C#
=269
16D
16F#
16A
16F#
16B-
16G
16E-
16C#
=270
16D
16F#
16A
16F#
16B-
16G
16E-
16C#
=271
16D
16F#
16A
16F#
16B-
16G
16E-
16C#
=272
16D
16F#
16A
16F#
16B-
16G
16E-
16C#
=273
16D
16D
16F#
16A
16d
16d
16f#
16a
=274
16dd
16dd
16ff#
16aa
16ddd
16ddd
16aa
16ff#
=275
16dd
16dd
16a
16f#
16d
16d
16A
16F#
=276
16D
16D
16F#
16A
16d
16d
16A
16F#
=277
16D
16D
16F#
16A
16c
16d
16f#
16a
=278
16cc
16dd
16ff#
16aa
16ccc
16ccc
16aa
16ff#
=279
16dd
16cc
16a
16f#
16d
16c
16A
16F#
=280
16D
16D
16F#
16A
16c
16c
16A
16F#
=281
8.D
[16D
8.D]
[16D
=282
8.D]
[16D
8.D]
[16D
=283
8.D]
[16D
8.D]
[16D
=284
8.D]
[16D
8.D]
[16D
=285
8.D]
[16D
8.D]
[16D
=286
8.D]
[16D
8.D]
[16D
=287
8.D]
[16D
8.D]
[16D
=288
8.D]
[16D
8.D]
[16D
=289
8.D]
[16D
8.D]
[16D
=290
8.D]
[16D
8.D]
[16D
=291
8.D]
[16D
8.D]
[16D
=292
8.D]
[16D
8.D]
[16D
=293
4D]
8r
16r
[16c
=294
4c]
8r
16r
[16D
=295
4D]
8r
16r
[16c
=296
4c]
8r
16r
[16D
=297
4D]
8r
16r
[16c
=298
4c]
8r
16r
16c[
=299
4c]
4r
=300
4r
8r
16r
16c[
=301
4c]
4r
=302
4r
8r
16r
16c[
=303
4c]
4r
=304
4r
8r
16r
[16gg
=305
4.gg]
16ff#
16ee
=306
16dd
16dd#
16ee
16b
16dd
16cc
16b
16a
=307
4g
8r
16r
[16g
=308
8.g]
[16b
8.b]
[16g
=309
8g]
8r
8r
16r
[16g
=310
8.g]
[16dd
8.dd]
[16g
=311
8g]
8r
8r
16r
[16b
=312
8.b]
[16gg
8.gg]
16ff#[
=313
8ff#]
8r
4r
=314
8dd
8r
8cc#
8r
=315
8dd
8r
8r
16r
[16ee
=316
8.ee]
[16ccc
8.ccc]
16bb[
=317
8bb]
8r
4r
=318
8gg
8r
8ff#
8r
=319
8gg
8r
8r
16r
[16ee
=320
8.ee]
[16ccc
8.ccc]
16bb[
=321
8bb]
8r
4r
=322
8aa
8r
8aa#
8r
=323
8bb
8r
4r
=324
8ee
8r
8ee
8r
=325
8dd#
8r
4r
=326
8a
8r
8a#
8r
=327
8b
16a#
16b
16a#
16b
16a#
16b
=328
16a#
16b
16a#
16b
16a#
16b
16cc#
16b
=329
8b
4gg#
8ff#
=330
8ee
4gg#
8ee
=331
8dd#
4bb
[8bb
=332
8bb]
16ccc#
16bb
16aa
16gg#
16aa
16ff#
=333
8ee
4gg#
8ff#
=334
8ee
4gg#
8ee
=335
8dd#
16ff#
16ee
16dd#
16ee
16ff#
16dd#
=336
8ee
8r
4r
=337
16g
16b
16g
16b
16g
16b
16g
16b
=338
16g
16b
16g
16b
16g
16b
16g
16b
=339
16a
16b
16a
16b
16f#
16b
16f#
16b
=340
16f#
16b
16f#
16b
16f#
16b
16f#
16b
=341
16g
16b
16g
16b
16g
16b
16g
16b
=342
16g
16b
16g
16b
16b-
16cc#
16b-
16cc#
=343
16cc
16dd
16cc
16dd
16a
16dd
16a
16dd
=344
16a
16dd
16a
16dd
16a
16dd
16a
16dd
=345
8dd
4bb
8aa
=346
8gg
4bb
8gg
=347
8ff#
4ddd
8ddd[
=348
8ddd]
16eee
16ddd
16ccc
16bb
16ccc
16aa
=349
8gg
4bb
8aa
=350
8gg
4bb
8gg
=351
8ff#
16aa
16gg
16ff#
16gg
16aa
16ff#
=352
8gg
8r
4r
=353
16B
16d
16B
16d
16B
16d
16B
16d
=354
16B
16d
16B
16d
16B
16d
16B
16d
=355
16c
16d
16c
16d
16A
16d
16A
16d
=356
16A
16d
16A
16d
16A
16d
16A
16d
=357
16B
16d
16B
16d
16d
16e#
16d
16e#
=358
16e
16f#
16e
16f#
16e
16f#
16e
16f#
=359
16d
16f#
16d
16f#
16f
16g#
16f
16g#
=360
16g
16a
16g
16a
16g
16a
16g
16a
=361
16f
16a
16f
16a
16f
16a
16f
16a
=362
16d
16b
16g
16b
16e
16cc
16g
16cc
=363
16c#
16a#
16f#
16a#
16d
16b
16f#
16b
=364
16B
16g#
16e
16g#
16c
16a
16e
16a
=365
16A
16f#
16d
16f#
16G
16g
16g
16gg
=366
16e
16ee
16e
16ee
16A
16a
16d
16dd
=367
8g
4b
8b
=368
8a#
16cc#
16b
16a#
16b
16cc#
16a#
=369
8b
4dd
8dd
=370
8cc#
16ee
16dd
16cc#
16dd
16ee
16cc#
=371
8dd
4ff
8ff
=372
4ff
16ff
16ee
16dd#
16ee
=373
4ee
16ee
16dd
16cc#
16dd
=374
4dd[
16dd]
16cc
16dd
16cc[
=375
16cc]
16cc
16dd
16cc
16d
16b
16cc
16b
=376
16e
16a
16b
16a
16c
16f#
16g
16f#
=377
4g
8d
8b
=378
4.a
8f#
=379
4g
8d
8b-
=380
4.a
8f#
=381
4g
8d
8b
=382
4.a
8f#
=383
8g
8b
8a
8f#
=384
8g
8b
8a
8f#
=385
8g
8b
8a
8f#
=386
8g
8b
8a
8f#
=387
4g
8r
16r
16d[
=388
4d]
8r
16r
16B[
=389
4B]
4r
=390
8BB
8r
8D
16r
[16gg
=391
4.gg]
16ff#
16ee
=392
16dd
16dd#
16ee
16b
16dd
16cc
16b
16a
=393
16g
16a#
16b
16f#
16a
16g
16f#
16e
=394
16d
16d#
16e
16B
16d
16c
16B
16A
=395
16G
16A#
16B
16F#
16A
16G
16F#
16E
=396
16D
16D#
16E
16BB
16D
16C
16BB
16AA
=397
16GG
16FF#
16GG
16AA
16BB-
16BB
16C
16C#
=398
16D
16C#
16D
16E
16F#
16D
16E
16F#
=399
16G
16F#
16G
16A
16B-
16B
16c
16c#
=400
16d
16d
16f#
16a
16dd
16dd
16ff#
16aa
=401
16ddd
16ddd
16aa
16ff#
16dd
16dd
16a
16f#
=402
16d
16d
16f#
16a
16dd
16dd
16ff#
16aa
=403
16ddd
16ddd
16aa
16ff#
16dd
16dd
16a
16f#
=404
16d
16dd
16a
16f#
16d
16d
16A
16F#
=405
2D[
=406
4..D]
[16a
=407
2a]
=408
8aa
8r
8ccc
8r
=409
8dd
8r
4r
=410
4r
8r
16r
[16a
=411
4.a]
24cc#
24dd
24ee
=412
8dd
8r
8r
16r
16b[
=413
4.b]
24cc#
24dd
24ee
=414
8dd
8r
8r
16r
[16cc
=415
4cc_
8.cc]
[16ff#
=416
4ff#_
8.ff#]
16gg[
=417
8gg]
8r
8g
8r
=418
4r
8r
16r
16a[
=419
4.a]
24dd
24ff#
24aa
=420
8ddd
8r
8r
16r
16b[
=421
4.b]
24dd
24gg
24bb
=422
8ddd
8r
8r
16r
[16cc
=423
4cc_
8.cc]
[16ff#
=424
4ff#_
8.ff#]
16gg[
=425
8gg]
8r
8g
8r
=426
4r
8r
16r
[16cc
=427
4cc_
8.cc]
[16aa
=428
4aa_
8.aa]
16bb[
=429
8bb]
8r
8b
8r
=430
4r
8r
16r
[16dd
=431
4dd_
8.dd]
[16ddd
=432
4ddd_
8.ddd]
16bb[
=433
8bb]
8r
8B
8r
=434
2r
=435
8gg
8r
8G
8r
=436
4r
8r
16r
==
*-
